X: 928
T: Aliyah Leahy's Baptism
R: reel
M: 4/4
K: Gminor
GFDC DG,G,A,|B,G,B,C D2 D2|GFDC DBAG|FDCD F2F2|
GFDC DG,G,A,|B,G,B,C DE F/E/D|G2AG F2GF|DCDE F2F2:|
|:GABc dGGF|Gagf g2g2|GABc defd|cAfc AcBA|
GABc dGGF|Gagf g2ga|b2bg a2af|gfde fdcA:|

